app/images/logo/metamask-fox.svg

<svg fill="none" height="33" viewBox="0 0 35 33" width="35" xmlns="http://www.w3.org/2000/svg"><g stroke-linecap="round" stroke-linejoin="round" stroke-width=".25"><path d="m32.9582 1-13.1341 9.7183 2.4424-5.72731z" fill="#e17726" stroke="#e17726"/><g fill="#e27625" stroke="#e27625"><path d="m2.66296 1 13.01714 9.809-2.3254-5.81802z"/><path d="m28.2295 23.5335-3.4947 5.3386 7.4829 2.0603 2.1436-7.2823z"/><path d="m1.27281 23.6501 2.13055 7.2823 7.46994-2.0603-3.48166-5.3386z"/><path d="m10.4706 14.5149-2.0786 3.1358 7.405.3369-.2469-7.969z"/><path d="m25.1505 14.5149-5.1575-4.58704-.1688 8.05974 7.4049-.3369z"/><path d="m10.8733 28.8721 4.4819-2.1639-3.8583-3.0062z"/><path d="m20.2659 26.7082 4.4689 2.1639-.6105-5.1701z"/></g><path d="m24.7348 28.8721-4.469-2.1639.3638 2.9025-.039 1.231z" fill="#d5bfb2" stroke="#d5bfb2"/><path d="m10.8732 28.8721 4.1572 1.9696-.026-1.231.3508-2.9025z" fill="#d5bfb2" stroke="#d5bfb2"/><path d="m15.1084 21.7842-3.7155-1.0884 2.6243-1.2051z" fill="#233447" stroke="#233447"/><path d="m20.5126 21.7842 1.0913-2.2935 2.6372 1.2051z" fill="#233447" stroke="#233447"/><path d="m10.8733 28.8721.6495-5.3386-4.13117.1167z" fill="#cc6228" stroke="#cc6228"/><path d="m24.0982 23.5335.6366 5.3386 3.4946-5.2219z" fill="#cc6228" stroke="#cc6228"/><path d="m27.2291 17.6507-7.405.3369.6885 3.7966 1.0913-2.2935 2.6372 1.2051z" fill="#cc6228" stroke="#cc6228"/><path d="m11.3929 20.6958 2.6242-1.2051 1.0913 2.2935.6885-3.7966-7.40495-.3369z" fill="#cc6228" stroke="#cc6228"/><path d="m8.392 17.6507 3.1049 6.0513-.1039-3.0062z" fill="#e27525" stroke="#e27525"/><path d="m24.2412 20.6958-.1169 3.0062 3.1049-6.0513z" fill="#e27525" stroke="#e27525"/><path d="m15.797 17.9876-.6886 3.7967.8704 4.4833.1949-5.9087z" fill="#e27525" stroke="#e27525"/><path d="m19.8242 17.9876-.3638 2.3584.1819 5.9216.8704-4.4833z" fill="#e27525" stroke="#e27525"/><path d="m20.5127 21.7842-.8704 4.4834.6236.4406 3.8584-3.0062.1169-3.0062z" fill="#f5841f" stroke="#f5841f"/><path d="m11.3929 20.6958.104 3.0062 3.8583 3.0062.6236-.4406-.8704-4.4834z" fill="#f5841f" stroke="#f5841f"/><path d="m20.5906 30.8417.039-1.231-.3378-.2851h-4.9626l-.3248.2851.026 1.231-4.1572-1.9696 1.4551 1.1921 2.9489 2.0344h5.0536l2.962-2.0344 1.442-1.1921z" fill="#c0ac9d" stroke="#c0ac9d"/><path d="m20.2659 26.7082-.6236-.4406h-3.6635l-.6236.4406-.3508 2.9025.3248-.2851h4.9626l.3378.2851z" fill="#161616" stroke="#161616"/><path d="m33.5168 11.3532 1.1043-5.36447-1.6629-4.98873-12.6923 9.3944 4.8846 4.1205 6.8983 2.0085 1.52-1.7752-.6626-.4795 1.0523-.9588-.8054-.622 1.0523-.8034z" fill="#763e1a" stroke="#763e1a"/><path d="m1 5.98873 1.11724 5.36447-.71451.5313 1.06527.8034-.80545.622 1.05228.9588-.66255.4795 1.51997 1.7752 6.89835-2.0085 4.8846-4.1205-12.69233-9.3944z" fill="#763e1a" stroke="#763e1a"/><path d="m32.0489 16.5234-6.8983-2.0085 2.0786 3.1358-3.1049 6.0513 4.1052-.0519h6.1318z" fill="#f5841f" stroke="#f5841f"/><path d="m10.4705 14.5149-6.89828 2.0085-2.29944 7.1267h6.11883l4.10519.0519-3.10487-6.0513z" fill="#f5841f" stroke="#f5841f"/><path d="m19.8241 17.9876.4417-7.5932 2.0007-5.4034h-8.9119l2.0006 5.4034.4417 7.5932.1689 2.3842.013 5.8958h3.6635l.013-5.8958z" fill="#f5841f" stroke="#f5841f"/></g></svg>

<svg width="35" height="33" viewBox="0 0 35 33" fill="none" xmlns="http://www.w3.org/2000/svg">
  <path d="M32.9582 1L19.8241 10.7183L22.2665 4.99099L32.9582 1Z" fill="#E17726" stroke="#E17726" stroke-width="0.25" stroke-linecap="round" stroke-linejoin="round"/>
  <path d="M2.66296 1L15.6801 10.809L13.3547 4.99098L2.66296 1Z" fill="#E27625" stroke="#E27625" stroke-width="0.25" stroke-linecap="round" stroke-linejoin="round"/>
  <path d="M28.2295 23.5335L24.7348 28.8721L32.2177 30.9324L34.3613 23.6501L28.2295 23.5335Z" fill="#E27625" stroke="#E27625" stroke-width="0.25" stroke-linecap="round" stroke-linejoin="round"/>
  <path d="M1.27281 23.6501L3.40336 30.9324L10.8733 28.8721L7.39164 23.5335L1.27281 23.6501Z" fill="#E27625" stroke="#E27625" stroke-width="0.25" stroke-linecap="round" stroke-linejoin="round"/>
  <path d="M10.4706 14.5149L8.392 17.6507L15.797 17.9876L15.5501 10.0186L10.4706 14.5149Z" fill="#E27625" stroke="#E27625" stroke-width="0.25" stroke-linecap="round" stroke-linejoin="round"/>
  <path d="M25.1505 14.5149L19.993 9.92786L19.8242 17.9876L27.2291 17.6507L25.1505 14.5149Z" fill="#E27625" stroke="#E27625" stroke-width="0.25" stroke-linecap="round" stroke-linejoin="round"/>
  <path d="M10.8733 28.8721L15.3552 26.7082L11.4969 23.702L10.8733 28.8721Z" fill="#E27625" stroke="#E27625" stroke-width="0.25" stroke-linecap="round" stroke-linejoin="round"/>
  <path d="M20.2659 26.7082L24.7348 28.8721L24.1243 23.702L20.2659 26.7082Z" fill="#E27625" stroke="#E27625" stroke-width="0.25" stroke-linecap="round" stroke-linejoin="round"/>
  <path d="M24.7348 28.8721L20.2658 26.7082L20.6296 29.6107L20.5906 30.8417L24.7348 28.8721Z" fill="#D5BFB2" stroke="#D5BFB2" stroke-width="0.25" stroke-linecap="round" stroke-linejoin="round"/>
  <path d="M10.8732 28.8721L15.0304 30.8417L15.0044 29.6107L15.3552 26.7082L10.8732 28.8721Z" fill="#D5BFB2" stroke="#D5BFB2" stroke-width="0.25" stroke-linecap="round" stroke-linejoin="round"/>
  <path d="M15.1084 21.7842L11.3929 20.6958L14.0172 19.4907L15.1084 21.7842Z" fill="#233447" stroke="#233447" stroke-width="0.25" stroke-linecap="round" stroke-linejoin="round"/>
  <path d="M20.5126 21.7842L21.6039 19.4907L24.2411 20.6958L20.5126 21.7842Z" fill="#233447" stroke="#233447" stroke-width="0.25" stroke-linecap="round" stroke-linejoin="round"/>
  <path d="M10.8733 28.8721L11.5228 23.5335L7.39163 23.6502L10.8733 28.8721Z" fill="#CC6228" stroke="#CC6228" stroke-width="0.25" stroke-linecap="round" stroke-linejoin="round"/>
  <path d="M24.0982 23.5335L24.7348 28.8721L28.2294 23.6502L24.0982 23.5335Z" fill="#CC6228" stroke="#CC6228" stroke-width="0.25" stroke-linecap="round" stroke-linejoin="round"/>
  <path d="M27.2291 17.6507L19.8241 17.9876L20.5126 21.7842L21.6039 19.4907L24.2411 20.6958L27.2291 17.6507Z" fill="#CC6228" stroke="#CC6228" stroke-width="0.25" stroke-linecap="round" stroke-linejoin="round"/>
  <path d="M11.3929 20.6958L14.0171 19.4907L15.1084 21.7842L15.7969 17.9876L8.39195 17.6507L11.3929 20.6958Z" fill="#CC6228" stroke="#CC6228" stroke-width="0.25" stroke-linecap="round" stroke-linejoin="round"/>
  <path d="M8.392 17.6507L11.4969 23.702L11.393 20.6958L8.392 17.6507Z" fill="#E27525" stroke="#E27525" stroke-width="0.25" stroke-linecap="round" stroke-linejoin="round"/>
  <path d="M24.2412 20.6958L24.1243 23.702L27.2292 17.6507L24.2412 20.6958Z" fill="#E27525" stroke="#E27525" stroke-width="0.25" stroke-linecap="round" stroke-linejoin="round"/>
  <path d="M15.797 17.9876L15.1084 21.7843L15.9788 26.2676L16.1737 20.3589L15.797 17.9876Z" fill="#E27525" stroke="#E27525" stroke-width="0.25" stroke-linecap="round" stroke-linejoin="round"/>
  <path d="M19.8242 17.9876L19.4604 20.346L19.6423 26.2676L20.5127 21.7843L19.8242 17.9876Z" fill="#E27525" stroke="#E27525" stroke-width="0.25" stroke-linecap="round" stroke-linejoin="round"/>
  <path d="M20.5127 21.7842L19.6423 26.2676L20.2659 26.7082L24.1243 23.702L24.2412 20.6958L20.5127 21.7842Z" fill="#F5841F" stroke="#F5841F" stroke-width="0.25" stroke-linecap="round" stroke-linejoin="round"/>
  <path d="M11.3929 20.6958L11.4969 23.702L15.3552 26.7082L15.9788 26.2676L15.1084 21.7842L11.3929 20.6958Z" fill="#F5841F" stroke="#F5841F" stroke-width="0.25" stroke-linecap="round" stroke-linejoin="round"/>
  <path d="M20.5906 30.8417L20.6296 29.6107L20.2918 29.3256H15.3292L15.0044 29.6107L15.0304 30.8417L10.8732 28.8721L12.3283 30.0642L15.2772 32.0986H20.3308L23.2928 30.0642L24.7348 28.8721L20.5906 30.8417Z" fill="#C0AC9D" stroke="#C0AC9D" stroke-width="0.25" stroke-linecap="round" stroke-linejoin="round"/>
  <path d="M20.2659 26.7082L19.6423 26.2676H15.9788L15.3552 26.7082L15.0044 29.6107L15.3292 29.3256H20.2918L20.6296 29.6107L20.2659 26.7082Z" fill="#161616" stroke="#161616" stroke-width="0.25" stroke-linecap="round" stroke-linejoin="round"/>
  <path d="M33.5168 11.3532L34.6211 5.98873L32.9582 1L20.2659 10.3944L25.1505 14.5149L32.0488 16.5234L33.5688 14.7482L32.9062 14.2687L33.9585 13.3099L33.1531 12.6879L34.2054 11.8845L33.5168 11.3532Z" fill="#763E1A" stroke="#763E1A" stroke-width="0.25" stroke-linecap="round" stroke-linejoin="round"/>
  <path d="M1 5.98873L2.11724 11.3532L1.40273 11.8845L2.468 12.6879L1.66255 13.3099L2.71483 14.2687L2.05228 14.7482L3.57225 16.5234L10.4706 14.5149L15.3552 10.3944L2.66287 1L1 5.98873Z" fill="#763E1A" stroke="#763E1A" stroke-width="0.25" stroke-linecap="round" stroke-linejoin="round"/>
  <path d="M32.0489 16.5234L25.1506 14.5149L27.2292 17.6507L24.1243 23.702L28.2295 23.6501H34.3613L32.0489 16.5234Z" fill="#F5841F" stroke="#F5841F" stroke-width="0.25" stroke-linecap="round" stroke-linejoin="round"/>
  <path d="M10.4705 14.5149L3.57222 16.5234L1.27278 23.6501H7.39161L11.4968 23.702L8.39193 17.6507L10.4705 14.5149Z" fill="#F5841F" stroke="#F5841F" stroke-width="0.25" stroke-linecap="round" stroke-linejoin="round"/>
  <path d="M19.8241 17.9876L20.2658 10.3944L22.2665 4.991H13.3546L15.3552 10.3944L15.7969 17.9876L15.9658 20.3718L15.9788 26.2676H19.6423L19.6553 20.3718L19.8241 17.9876Z" fill="#F5841F" stroke="#F5841F" stroke-width="0.25" stroke-linecap="round" stroke-linejoin="round"/>
</svg>
